packages/match-logos/mono/svg/strava.svg

<svg fill="none" height="30" viewBox="0 0 143 30" width="143" xmlns="http://www.w3.org/2000/svg" xmlns:xlink="http://www.w3.org/1999/xlink"><clipPath id="a"><path d="m0 0h142.713v30h-142.713z"/></clipPath><g clip-path="url(#a)" fill="#1f304c"><path d="m13.6722 28.8271c-2.5745.0217-5.13683-.355-7.59617-1.1167-2.24519-.6868-4.32255-1.8341-6.0994675-3.3688l4.7622775-5.6725c1.36445 1.071 2.91321 1.8836 4.56991 2.3976 1.54205.4717 3.14495.7152 4.75755.7225.601.0406 1.2028-.064 1.7548-.3049.1574-.0761.2904-.1945.3841-.3421.0937-.1475.1443-.3183.1461-.4931v-.0751c0-.3847-.2628-.7085-.7789-.9384-.9381-.3746-1.9155-.6421-2.9136-.7976-1.4968-.305-2.92778-.6615-4.28374-1.0697-1.25772-.3586-2.46174-.8841-3.57992-1.5624-.99261-.6-1.83384-1.4204-2.45855-2.3976-.64542-1.0666-.97111-2.2961-.93838-3.5424v-.075c-.0103-1.22088.24422-2.42944.74601-3.54243.4981-1.10357 1.2391-2.08034 2.16766-2.85737 1.04586-.86164 2.25114-1.50892 3.54707-1.90491 1.57247-.48293 3.21145-.71412 4.85615-.68502 2.299-.03245 4.5897.28394 6.7938.93838 1.9002.58428 3.6767 1.51308 5.2409 2.74007l-4.3447 6.01968c-1.2147-.892-2.573-1.56963-4.0163-2.00342-1.2902-.40213-2.6321-.61393-3.9834-.62871-.5068-.03578-1.0135.0698-1.4639.30498-.143.07808-.2622.1935-.3448.33396s-.1256.3007-.1244.46366v.04223c0 .36127.2346.6616.7226.9384.9033.377 1.8483.6447 2.8151.7976 1.5846.2634 3.1515.6238 4.6919 1.0791 1.2736.3768 2.4858.9362 3.5987 1.661.9513.6141 1.7465 1.4414 2.3225 2.4163.573 1.0485.8564 2.2307.8211 3.4251v.0797c.0201 1.3-.2677 2.5862-.8399 3.7536-.5521 1.1147-1.3551 2.0863-2.3459 2.8386-1.1121.8191-2.3653 1.4266-3.6972 1.7923-1.5875.437-3.2285.6486-4.8749.6287z"/><path d="m32.7916 9.20548h-7.8448v-7.53519h24.609v7.53519h-7.8496v19.12422h-8.9146z"/><path d="m63.5706 14.3571c.8896.0513 1.7715-.191 2.5101-.6897.297-.2181.5358-.506.6953-.8382.1596-.3322.235-.6985.2196-1.0667v-.0751c.0256-.3722-.0452-.7447-.2054-1.0816-.1603-.337-.4046-.62695-.7095-.84204-.7423-.45283-1.6043-.67037-2.4726-.62402h-3.8849v5.21736zm-12.762-12.6681h13.0294c1.993-.05728 3.9815.21865 5.8836.81639 1.388.45641 2.6562 1.21794 3.7113 2.22866.7913.77831 1.4141 1.71096 1.8299 2.74006.4274 1.14411.6344 2.35882.6099 3.57989v.0798c.06 1.7551-.4323 3.4848-1.4076 4.9453-.9807 1.3845-2.3073 2.4878-3.8473 3.1998l6.2074 9.0648h-10.1721l-5.0297-7.615h-1.9002v7.615h-8.9146v-26.66877z"/><path d="m128.361 16.858 5.809 11.4717h8.544l-14.353-28.3297-14.348 28.3297h8.544z"/><path d="m88.4237 16.858 5.8086 11.4717h8.5397l-14.3483-28.3297-14.3431 28.3297h8.5392z"/><path d="m108.397 13.1373-5.809-11.46701h-8.5436l14.3526 28.32971 14.343-28.32971h-8.534z"/></g></svg>

<svg width="143" height="30" viewBox="0 0 143 30" fill="none" xmlns="http://www.w3.org/2000/svg">
<g clip-path="url(#clip0)">
<path d="M13.6722 28.8271C11.0977 28.8488 8.53537 28.4721 6.07603 27.7104C3.83084 27.0236 1.75348 25.8763 -0.0234375 24.3416L4.73884 18.6691C6.10329 19.7401 7.65205 20.5527 9.30875 21.0667C10.8508 21.5384 12.4537 21.7819 14.0663 21.7892C14.6673 21.8298 15.2691 21.7252 15.8211 21.4843C15.9785 21.4082 16.1115 21.2898 16.2052 21.1422C16.2989 20.9947 16.3495 20.8239 16.3513 20.6491V20.574C16.3513 20.1893 16.0885 19.8655 15.5724 19.6356C14.6343 19.261 13.6569 18.9935 12.6588 18.838C11.162 18.533 9.73102 18.1765 8.37506 17.7683C7.11734 17.4097 5.91332 16.8842 4.79514 16.2059C3.80253 15.6059 2.9613 14.7855 2.33659 13.8083C1.69117 12.7417 1.36548 11.5122 1.39821 10.2659V10.1909C1.38791 8.97002 1.64243 7.76146 2.14422 6.64847C2.64232 5.5449 3.38332 4.56813 4.31188 3.7911C5.35774 2.92946 6.56302 2.28218 7.85895 1.88619C9.43142 1.40326 11.0704 1.17207 12.7151 1.20117C15.0141 1.16872 17.3048 1.48511 19.5089 2.13955C21.4091 2.72383 23.1856 3.65263 24.7498 4.87962L20.4051 10.8993C19.1904 10.0073 17.8321 9.32967 16.3888 8.89588C15.0986 8.49375 13.7567 8.28195 12.4054 8.26717C11.8986 8.23139 11.3919 8.33697 10.9415 8.57215C10.7985 8.65023 10.6793 8.76565 10.5967 8.90611C10.5141 9.04657 10.4711 9.20681 10.4723 9.36977V9.412C10.4723 9.77327 10.7069 10.0736 11.1949 10.3504C12.0982 10.7274 13.0432 10.9951 14.01 11.148C15.5946 11.4114 17.1615 11.7718 18.7019 12.2271C19.9755 12.6039 21.1877 13.1633 22.3006 13.8881C23.2519 14.5022 24.0471 15.3295 24.6231 16.3044C25.1961 17.3529 25.4795 18.5351 25.4442 19.7295V19.8092C25.4643 21.1092 25.1765 22.3954 24.6043 23.5628C24.0522 24.6775 23.2492 25.6491 22.2584 26.4014C21.1463 27.2205 19.8931 27.828 18.5612 28.1937C16.9737 28.6307 15.3327 28.8423 13.6863 28.8224L13.6722 28.8271Z" fill="#1F304C"/>
<path d="M32.7916 9.20548H24.9468V1.67029H49.5558V9.20548H41.7062V28.3297H32.7916V9.20548Z" fill="#1F304C"/>
<path d="M63.5706 14.3571C64.4602 14.4084 65.3421 14.1661 66.0807 13.6674C66.3777 13.4493 66.6165 13.1614 66.776 12.8292C66.9356 12.497 67.011 12.1307 66.9956 11.7625V11.6874C67.0212 11.3152 66.9504 10.9427 66.7902 10.6058C66.6299 10.2688 66.3856 9.97885 66.0807 9.76376C65.3384 9.31093 64.4764 9.09339 63.6081 9.13974H59.7232V14.3571H63.5706ZM50.8086 1.689H63.838C65.831 1.63172 67.8195 1.90765 69.7216 2.50539C71.1096 2.9618 72.3778 3.72333 73.4329 4.73405C74.2242 5.51236 74.847 6.44501 75.2628 7.47411C75.6902 8.61822 75.8972 9.83293 75.8727 11.054V11.1338C75.9327 12.8889 75.4404 14.6186 74.4651 16.0791C73.4844 17.4636 72.1578 18.5669 70.6178 19.2789L76.8252 28.3437H66.6531L61.6234 20.7287H59.7232V28.3437H50.8086V1.67493V1.689Z" fill="#1F304C"/>
<path d="M128.361 16.858L134.17 28.3297H142.714L128.361 0L114.013 28.3297H122.557L128.361 16.858Z" fill="#1F304C"/>
<path d="M88.4236 16.858L94.2321 28.3297H102.771L88.4236 0L74.0804 28.3297H82.6197L88.4236 16.858Z" fill="#1F304C"/>
<path d="M108.397 13.1373L102.588 1.67029H94.0444L108.397 30L122.74 1.67029H114.206L108.397 13.1373Z" fill="#1F304C"/>
</g>
<defs>
<clipPath id="clip0">
<rect width="142.713" height="30" fill="white"/>
</clipPath>
</defs>
</svg>
